Dominus_Dark_Funeral/scalable/apps/yaourtgui.svg

<svg xmlns="http://www.w3.org/2000/svg" xmlns:xlink="http://www.w3.org/1999/xlink" width="48" height="48"><defs><linearGradient id="b"><stop offset="0" stop-color="#0ff"/><stop offset="1" stop-color="teal"/></linearGradient><linearGradient id="a"><stop offset="0"/><stop offset="1" stop-opacity="0"/></linearGradient><radialGradient xlink:href="#b" id="c" cx="23.705" cy="24.145" fx="23.705" fy="24.145" r="20.205" gradientTransform="matrix(1 0 0 1.17075 0 -4.123)" gradientUnits="userSpaceOnUse"/></defs><path d="M23.71.5C17.88.5 13.2 1.6 9.78 3.82 5.68 6.48 3.5 10.73 3.5 16.1c0 7.22 5.8 16.88 7.58 19.67a54.48 54.48 0 0 0 6.25 8.16c2.54 2.64 4.57 3.87 6.37 3.87 1.8 0 3.83-1.23 6.37-3.87 2-2.08 4.22-4.98 6.25-8.16 1.78-2.79 7.59-12.45 7.59-19.67 0-5.37-2.17-9.62-6.27-12.27C34.24 1.6 29.55.49 23.7.49z" fill="url(#c)"/><path d="M10.068 3.654c-.093.058-.207.097-.298.157a13.855 13.855 0 0 0-2.711 2.285 12.963 12.963 0 0 0-1.967 2.838c-.048.094-.064.209-.11.304l14.909 14.864v21.99c.283.208.622.59.892.754 1.05.637 2.006.943 2.906.943.9 0 1.859-.306 2.909-.943.253-.154.57-.515.836-.707V24.102L42.38 9.154c-.034-.068-.044-.15-.078-.218A12.905 12.905 0 0 0 40.34 6.1a13.751 13.751 0 0 0-2.71-2.28c-.117-.077-.265-.128-.386-.203L23.64 17.223z" fill="#afc"/><path d="M23.71.35C17.88.35 13.2 1.47 9.78 3.68c-4.1 2.66-6.27 6.9-6.27 12.27 0 7.23 5.8 16.89 7.58 19.68a54.48 54.48 0 0 0 6.25 8.15c2.54 2.65 4.57 3.88 6.37 3.88 1.8 0 3.83-1.23 6.37-3.88 2-2.07 4.22-4.97 6.25-8.15 1.78-2.8 7.59-12.45 7.59-19.68 0-5.37-2.17-9.61-6.27-12.27C34.24 1.47 29.55.35 23.7.35zm0 .14c2.12.09 4.12.28 5.88.7 1.16.27 2.25.62 3.26 1.04 1.01.41 1.95.9 2.8 1.45a12.92 12.92 0 0 1 4.67 5.12 14.1 14.1 0 0 1 1.2 3.34c.26 1.2.4 2.47.4 3.81 0 1.81-.37 3.77-.94 5.73a43.19 43.19 0 0 1-2.19 5.78 69.59 69.59 0 0 1-4.46 8.17 54.47 54.47 0 0 1-6.25 8.15 17.98 17.98 0 0 1-3.46 2.93c-.32.2-.62.3-.9.4-.3-.1-.6-.2-.92-.4a17.72 17.72 0 0 1-3.46-2.93 54.5 54.5 0 0 1-6.25-8.15 69.6 69.6 0 0 1-4.46-8.17 43.19 43.19 0 0 1-2.19-5.78 20.93 20.93 0 0 1-.93-5.73c0-1.34.13-2.61.4-3.8.27-1.2.67-2.32 1.2-3.35a12.92 12.92 0 0 1 4.67-5.12 17.1 17.1 0 0 1 2.8-1.45c1-.42 2.1-.77 3.26-1.04C19.59.77 21.6.58 23.7.49z" opacity=".2"/></svg>

<?xml version="1.0" encoding="UTF-8" standalone="no"?>
<svg
   xmlns:dc="http://purl.org/dc/elements/1.1/"
   xmlns:cc="http://creativecommons.org/ns#"
   xmlns:rdf="http://www.w3.org/1999/02/22-rdf-syntax-ns#"
   xmlns:svg="http://www.w3.org/2000/svg"
   xmlns="http://www.w3.org/2000/svg"
   xmlns:xlink="http://www.w3.org/1999/xlink"
   xmlns:sodipodi="http://sodipodi.sourceforge.net/DTD/sodipodi-0.dtd"
   xmlns:inkscape="http://www.inkscape.org/namespaces/inkscape"
   width="48"
   height="48"
   version="1.1"
   id="svg21"
   sodipodi:docname="yaourtgui.svg"
   inkscape:version="0.92.4 (5da689c313, 2019-01-14)">
  <metadata
     id="metadata25">
    <rdf:RDF>
      <cc:Work
         rdf:about="">
        <dc:format>image/svg+xml</dc:format>
        <dc:type
           rdf:resource="http://purl.org/dc/dcmitype/StillImage" />
        <dc:title></dc:title>
      </cc:Work>
    </rdf:RDF>
  </metadata>
  <sodipodi:namedview
     pagecolor="#ffffff"
     bordercolor="#666666"
     borderopacity="1"
     objecttolerance="10"
     gridtolerance="10"
     guidetolerance="10"
     inkscape:pageopacity="0"
     inkscape:pageshadow="2"
     inkscape:window-width="1112"
     inkscape:window-height="480"
     id="namedview23"
     showgrid="false"
     inkscape:zoom="4.9166667"
     inkscape:cx="2.1355932"
     inkscape:cy="24"
     inkscape:window-x="0"
     inkscape:window-y="25"
     inkscape:window-maximized="0"
     inkscape:current-layer="svg21" />
  <defs
     id="defs13">
    <linearGradient
       id="b">
      <stop
         offset="0"
         stop-color="#0ff"
         id="stop2" />
      <stop
         offset="1"
         stop-color="teal"
         id="stop4" />
    </linearGradient>
    <linearGradient
       id="a">
      <stop
         offset="0"
         id="stop7" />
      <stop
         offset="1"
         stop-opacity="0"
         id="stop9" />
    </linearGradient>
    <radialGradient
       xlink:href="#b"
       id="c"
       cx="23.705"
       cy="24.145"
       fx="23.705"
       fy="24.145"
       r="20.205"
       gradientTransform="matrix(1,0,0,1.17075,0,-4.123)"
       gradientUnits="userSpaceOnUse" />
  </defs>
  <path
     d="M 23.71,0.5 C 17.88,0.5 13.2,1.6 9.78,3.82 5.68,6.48 3.5,10.73 3.5,16.1 c 0,7.22 5.8,16.88 7.58,19.67 a 54.48,54.48 0 0 0 6.25,8.16 c 2.54,2.64 4.57,3.87 6.37,3.87 1.8,0 3.83,-1.23 6.37,-3.87 2,-2.08 4.22,-4.98 6.25,-8.16 C 38.1,32.98 43.91,23.32 43.91,16.1 43.91,10.73 41.74,6.48 37.64,3.83 34.24,1.6 29.55,0.49 23.7,0.49 Z"
     id="path15"
     style="fill:url(#c)"
     inkscape:connector-curvature="0" />
  <path
     d="M 10.068,3.654 C 9.975,3.712 9.861,3.751 9.77,3.811 A 13.855,13.855 0 0 0 7.059,6.096 12.963,12.963 0 0 0 5.092,8.934 C 5.044,9.028 5.028,9.143 4.982,9.238 l 14.909,14.864 v 21.99 c 0.283,0.208 0.622,0.59 0.892,0.754 1.05,0.637 2.006,0.943 2.906,0.943 0.9,0 1.859,-0.306 2.909,-0.943 0.253,-0.154 0.57,-0.515 0.836,-0.707 V 24.102 L 42.38,9.154 C 42.346,9.086 42.336,9.004 42.302,8.936 A 12.905,12.905 0 0 0 40.34,6.1 13.751,13.751 0 0 0 37.63,3.82 C 37.513,3.743 37.365,3.692 37.244,3.617 L 23.64,17.223 Z"
     id="path17"
     inkscape:connector-curvature="0"
     style="fill:#aaffcc" />
  <path
     d="m 23.71,0.35 c -5.83,0 -10.51,1.12 -13.93,3.33 -4.1,2.66 -6.27,6.9 -6.27,12.27 0,7.23 5.8,16.89 7.58,19.68 a 54.48,54.48 0 0 0 6.25,8.15 c 2.54,2.65 4.57,3.88 6.37,3.88 1.8,0 3.83,-1.23 6.37,-3.88 2,-2.07 4.22,-4.97 6.25,-8.15 1.78,-2.8 7.59,-12.45 7.59,-19.68 0,-5.37 -2.17,-9.61 -6.27,-12.27 C 34.24,1.47 29.55,0.35 23.7,0.35 Z m 0,0.14 c 2.12,0.09 4.12,0.28 5.88,0.7 1.16,0.27 2.25,0.62 3.26,1.04 1.01,0.41 1.95,0.9 2.8,1.45 a 12.92,12.92 0 0 1 4.67,5.12 14.1,14.1 0 0 1 1.2,3.34 c 0.26,1.2 0.4,2.47 0.4,3.81 0,1.81 -0.37,3.77 -0.94,5.73 a 43.19,43.19 0 0 1 -2.19,5.78 69.59,69.59 0 0 1 -4.46,8.17 54.47,54.47 0 0 1 -6.25,8.15 17.98,17.98 0 0 1 -3.46,2.93 c -0.32,0.2 -0.62,0.3 -0.9,0.4 -0.3,-0.1 -0.6,-0.2 -0.92,-0.4 A 17.72,17.72 0 0 1 19.34,43.78 54.5,54.5 0 0 1 13.09,35.63 69.6,69.6 0 0 1 8.63,27.46 43.19,43.19 0 0 1 6.44,21.68 20.93,20.93 0 0 1 5.51,15.95 c 0,-1.34 0.13,-2.61 0.4,-3.8 0.27,-1.2 0.67,-2.32 1.2,-3.35 a 12.92,12.92 0 0 1 4.67,-5.12 17.1,17.1 0 0 1 2.8,-1.45 c 1,-0.42 2.1,-0.77 3.26,-1.04 1.75,-0.42 3.76,-0.61 5.86,-0.7 z"
     id="path19"
     inkscape:connector-curvature="0"
     style="opacity:0.2" />
</svg>
